X:214
T:New Ball Hunt. VWMLa.214
%%VWML:Anon2-3049-p134-0
F:http://www.vwml.org/record/Anon2/3049/p134
S:Anon. MS, late 18thC, Vaughan Williams Mem. Library
O:England;Yorkshire
Z:vmp/efdss.Simon Wilson. Reviewed PJH 2008.
M:6/8
L:1/8
Q:3/8=120
K:Bb
f|(Bc).B (fg).f|(cd).c e2g|fbf fdB|[F2c2][Fc] [F2c2]f|\
(Bc).B (fg).f|(cd).ce2g|fgf edc|B3 B2:|
B|Acc Bdd|cee dff|g>ab agf|=efg c2c|\
fcc gcc|acc b2b|aba gf=e|f>gf edc|
"P"(Bc).B (fg).f|(cd).ce2g|fbf fdB|[F2c2][Fc] [F2c2]f|\
(Bc).B (fg).f|(cd).c bag|fed cBA|B3 B2|]
